_includes/icons/ios-honeycombs.svg

<svg fill="#666" height="50" viewBox="0 0 50 50" width="50" xmlns="http://www.w3.org/2000/svg"><path d="m18 3.980469-8 4.457031v8.109375l-7 3.863281v9.179688l7 3.875v8.128906l8.015625 4.375 6.980469-3.828125 7.003906 3.875 8-4.425781v-8.136719l7-3.863281v-9.179688l-.515625-.285156-7.484375-4.125-7 3.859375-6-3.324219v-8.097656l-.515625-.285156zm0 2.289062 6 3.339844v6.925781l-6 3.324219-6-3.3125v-6.933594zm0 2.238282-4 2.230468v4.609375l4 2.246094 4-2.246094v-4.609375l-.515625-.285156zm0 2.289062 2 1.113281v2.265625l-2 1.121094-2-1.121094v-2.265625zm7.007813 7.472656 5.992187 3.320313v6.820312l-5.976562 3.335938-6.023438-3.335938v-6.820312zm-14.007813.007813 6 3.3125v6.816406l-6.007812 3.324219-5.992188-3.320313v-6.820312zm28 .003906 6 3.308594v6.820312l-6 3.3125-2.035156-1.125-3.964844-2.191406v-6.816406zm-28 2.175781-4 2.230469v4.609375l4 2.246094 4-2.246094v-4.609375l-.515625-.285156zm14 0-4 2.230469v4.609375l4 2.246094 4-2.246094v-4.609375l-.515625-.285156zm14 0-4 2.230469v4.609375l4 2.246094 4-2.246094v-4.609375l-.515625-.285156zm-28 2.292969 2 1.109375v2.269531l-2 1.121094-2-1.121094v-2.265625zm14 0 2 1.109375v2.269531l-2 1.121094-2-1.121094v-2.265625zm14 0 2 1.109375v2.269531l-2 1.121094-2-1.121094v-2.265625zm-21 7.390625 6 3.328125v6.9375l-5.984375 3.28125-6.015625-3.28125v-6.941406zm14 .003906 6 3.308594v6.957031l-6 3.324219-6-3.324219.011719-6.921875zm-14 2.265625-4 2.226563v4.613281l4 2.242188 4-2.242188v-4.613281l-.515625-.285156zm14 0-4 2.226563v4.613281l4 2.242188 4-2.242188v-4.613281l-.515625-.285156zm-14 2.289063 2 1.113281v2.265625l-2 1.121094-2-1.121094v-2.265625zm14 0 2 1.113281v2.265625l-2 1.121094-2-1.121094v-2.265625z"/></svg>

<svg xmlns="http://www.w3.org/2000/svg" viewBox="0 0 50 50" width="50" height="50" fill="#666"><path d="M 18 3.980469 L 10 8.4375 L 10 16.546875 L 3 20.410156 L 3 29.589844 L 10 33.464844 L 10 41.59375 L 18.015625 45.96875 L 24.996094 42.140625 L 32 46.015625 L 40 41.589844 L 40 33.453125 L 47 29.589844 L 47 20.410156 L 46.484375 20.125 L 39 16 L 32 19.859375 L 26 16.535156 L 26 8.4375 L 25.484375 8.152344 Z M 18 6.269531 L 24 9.609375 L 24 16.535156 L 18 19.859375 L 12 16.546875 L 12 9.613281 Z M 18 8.507813 L 14 10.738281 L 14 15.347656 L 18 17.59375 L 22 15.347656 L 22 10.738281 L 21.484375 10.453125 Z M 18 10.796875 L 20 11.910156 L 20 14.175781 L 18 15.296875 L 16 14.175781 L 16 11.910156 Z M 25.007813 18.269531 L 31 21.589844 L 31 28.410156 L 25.023438 31.746094 L 19 28.410156 L 19 21.589844 Z M 11 18.277344 L 17 21.589844 L 17 28.40625 L 10.992188 31.730469 L 5 28.410156 L 5 21.589844 Z M 39 18.28125 L 45 21.589844 L 45 28.410156 L 39 31.722656 L 36.964844 30.597656 L 33 28.40625 L 33 21.589844 Z M 11 20.457031 L 7 22.6875 L 7 27.296875 L 11 29.542969 L 15 27.296875 L 15 22.6875 L 14.484375 22.402344 Z M 25 20.457031 L 21 22.6875 L 21 27.296875 L 25 29.542969 L 29 27.296875 L 29 22.6875 L 28.484375 22.402344 Z M 39 20.457031 L 35 22.6875 L 35 27.296875 L 39 29.542969 L 43 27.296875 L 43 22.6875 L 42.484375 22.402344 Z M 11 22.75 L 13 23.859375 L 13 26.128906 L 11 27.25 L 9 26.128906 L 9 23.863281 Z M 25 22.75 L 27 23.859375 L 27 26.128906 L 25 27.25 L 23 26.128906 L 23 23.863281 Z M 39 22.75 L 41 23.859375 L 41 26.128906 L 39 27.25 L 37 26.128906 L 37 23.863281 Z M 18 30.140625 L 24 33.46875 L 24 40.40625 L 18.015625 43.6875 L 12 40.40625 L 12 33.464844 Z M 32 30.144531 L 38 33.453125 L 38 40.410156 L 32 43.734375 L 26 40.410156 L 26.011719 33.488281 Z M 18 32.410156 L 14 34.636719 L 14 39.25 L 18 41.492188 L 22 39.25 L 22 34.636719 L 21.484375 34.351563 Z M 32 32.410156 L 28 34.636719 L 28 39.25 L 32 41.492188 L 36 39.25 L 36 34.636719 L 35.484375 34.351563 Z M 18 34.699219 L 20 35.8125 L 20 38.078125 L 18 39.199219 L 16 38.078125 L 16 35.8125 Z M 32 34.699219 L 34 35.8125 L 34 38.078125 L 32 39.199219 L 30 38.078125 L 30 35.8125 Z"/></svg>
